public/assets/poker.svg

<svg width="3397" height="953" viewBox="0 0 3397 953" fill="none" xmlns="http://www.w3.org/2000/svg">
<g id="Frame" clip-path="url(#clip0)">
<path id="Vector" d="M2923.3 0L3062.3 20.6L3191.8 82.9L3310.4 198.7L3381.7 346.2L3397 527.1L3355.3 677.4L3254.2 819.1L3127.4 907L2991.8 952.8H2923.3H476.4L335.9 931.8L178.8 848.5L59 706.2L0 525.2L12.8 366.2L100 184.3L229.7 68.8L358 14.8L476.4 0H2923.3Z" fill="#2E5A9C"/>
<path id="Vector_2" d="M476.399 78.3008H2923.3L3079.4 110.001L3207.9 198.001L3285.6 311.201L3321.4 446.601L3306.2 585.801L3266.3 678.701L3169.5 789.301L3044.3 855.801L2923.3 874.601H476.399L335.199 848.801L205.099 767.801L112.299 637.801L79.6992 511.001L86.8992 393.401L136.799 268.501L223.799 168.601L336.099 103.701L476.399 78.3008Z" fill="#F87980"/>
<path id="Vector_3" d="M263.199 794.301L170.399 664.301L137.899 537.501L144.999 419.901L194.899 295.001L281.999 195.101L394.199 130.101L534.499 104.701H2981.4L3109.8 130.901L3079.4 110.001L2923.3 78.3008H476.399L336.099 103.701L223.799 168.601L136.799 268.501L86.8992 393.401L79.6992 511.001L112.299 637.801L205.099 767.801L335.199 848.801L357.299 852.801L263.199 794.301Z" fill="#A75155"/>
<path id="Vector_4" d="M2744.1 9.69922L2717.7 36.0992L2756.7 65.2992L2783 31.4992L2744.1 9.69922Z" fill="#3F7AD3"/>
<path id="Vector_5" d="M2896 37.5L2923.1 14L2954.5 41.1L2928 65.3L2896 37.5Z" fill="#3F7AD3"/>
<path id="Vector_6" d="M2579 9.69922L2538 39.5992L2586.1 66.2992L2613.1 43.9992L2579 9.69922Z" fill="#3F7AD3"/>
<path id="Vector_7" d="M2219.5 9.69922L2193.2 36.0992L2232.1 65.2992L2258.5 31.4992L2219.5 9.69922Z" fill="#3F7AD3"/>
<path id="Vector_8" d="M2371.4 37.5L2398.5 14L2430 41.1L2403.5 65.3L2371.4 37.5Z" fill="#3F7AD3"/>
<path id="Vector_9" d="M2054.5 9.69922L2013.4 39.5992L2061.5 66.2992L2088.5 43.9992L2054.5 9.69922Z" fill="#3F7AD3"/>
<path id="Vector_10" d="M1695 9.69922L1668.6 36.0992L1707.6 65.2992L1733.9 31.4992L1695 9.69922Z" fill="#3F7AD3"/>
<path id="Vector_11" d="M1846.8 37.5L1874 14L1905.4 41.1L1878.9 65.3L1846.8 37.5Z" fill="#3F7AD3"/>
<path id="Vector_12" d="M1529.9 9.69922L1488.9 39.5992L1537 66.2992L1564 43.9992L1529.9 9.69922Z" fill="#3F7AD3"/>
<path id="Vector_13" d="M1170.4 9.69922L1144.1 36.0992L1183 65.2992L1209.4 31.4992L1170.4 9.69922Z" fill="#3F7AD3"/>
<path id="Vector_14" d="M1322.3 37.5L1349.4 14L1380.8 41.1L1354.3 65.3L1322.3 37.5Z" fill="#3F7AD3"/>
<path id="Vector_15" d="M1005.4 9.69922L964.301 39.5992L1012.4 66.2992L1039.4 43.9992L1005.4 9.69922Z" fill="#3F7AD3"/>
<path id="Vector_16" d="M645.9 9.69922L619.5 36.0992L658.5 65.2992L684.8 31.4992L645.9 9.69922Z" fill="#3F7AD3"/>
<path id="Vector_17" d="M797.699 37.5L824.799 14L856.299 41.1L829.799 65.3L797.699 37.5Z" fill="#3F7AD3"/>
<path id="Vector_18" d="M480.801 9.69922L439.801 39.5992L487.901 66.2992L514.801 43.9992L480.801 9.69922Z" fill="#3F7AD3"/>
<path id="Vector_19" d="M650.199 887.6L676.499 913.9L637.599 943.1L611.199 909.3L650.199 887.6Z" fill="#3F7AD3"/>
<path id="Vector_20" d="M498.301 915.301L471.201 891.801L439.801 918.901L466.301 943.101L498.301 915.301Z" fill="#3F7AD3"/>
<path id="Vector_21" d="M815.199 887.6L856.299 917.5L808.199 944.1L781.199 921.8L815.199 887.6Z" fill="#3F7AD3"/>
<path id="Vector_22" d="M1174.7 887.6L1201.1 913.9L1162.1 943.1L1135.8 909.3L1174.7 887.6Z" fill="#3F7AD3"/>
<path id="Vector_23" d="M1022.9 915.301L995.701 891.801L964.301 918.901L990.801 943.101L1022.9 915.301Z" fill="#3F7AD3"/>
<path id="Vector_24" d="M1339.8 887.6L1380.8 917.5L1332.7 944.1L1305.7 921.8L1339.8 887.6Z" fill="#3F7AD3"/>
<path id="Vector_25" d="M1699.3 887.6L1725.6 913.9L1686.7 943.1L1660.3 909.3L1699.3 887.6Z" fill="#3F7AD3"/>
<path id="Vector_26" d="M1547.4 915.301L1520.3 891.801L1488.9 918.901L1515.4 943.101L1547.4 915.301Z" fill="#3F7AD3"/>
<path id="Vector_27" d="M1864.3 887.6L1905.4 917.5L1857.3 944.1L1830.3 921.8L1864.3 887.6Z" fill="#3F7AD3"/>
<path id="Vector_28" d="M2223.9 887.6L2250.2 913.9L2211.3 943.1L2184.9 909.3L2223.9 887.6Z" fill="#3F7AD3"/>
<path id="Vector_29" d="M2072 915.301L2044.9 891.801L2013.4 918.901L2039.9 943.101L2072 915.301Z" fill="#3F7AD3"/>
<path id="Vector_30" d="M2388.9 887.6L2430 917.5L2381.8 944.1L2354.9 921.8L2388.9 887.6Z" fill="#3F7AD3"/>
<path id="Vector_31" d="M2748.4 887.6L2774.8 913.9L2735.8 943.1L2709.5 909.3L2748.4 887.6Z" fill="#3F7AD3"/>
<path id="Vector_32" d="M2596.5 915.301L2569.4 891.801L2538 918.901L2564.5 943.101L2596.5 915.301Z" fill="#3F7AD3"/>
<path id="Vector_33" d="M2913.4 887.6L2954.5 917.5L2906.4 944.1L2879.4 921.8L2913.4 887.6Z" fill="#3F7AD3"/>
<path id="Vector_34" d="M3081.4 53.6992L3092.1 83.4992L3046 91.9992L3040.3 53.6992H3081.4Z" fill="#3F7AD3"/>
<path id="Vector_35" d="M3210.3 118.1V155L3168.4 150.8L3165.6 123.1L3210.3 118.1Z" fill="#3F7AD3"/>
<path id="Vector_36" d="M3298.9 221.199L3292.9 253.499L3253.8 237.399L3279.4 201.699L3298.9 221.199Z" fill="#3F7AD3"/>
<path id="Vector_37" d="M3349.1 336.9L3333.4 361.8L3298.9 340.8L3311.3 315.5L3349.1 336.9Z" fill="#3F7AD3"/>
<path id="Vector_38" d="M3081.4 902.4L3092.1 872.6L3046 864.1L3040.3 902.4H3081.4Z" fill="#3F7AD3"/>
<path id="Vector_39" d="M3210.3 838V801.1L3168.4 805.4L3165.6 833L3210.3 838Z" fill="#3F7AD3"/>
<path id="Vector_40" d="M3298.9 734.9L3292.9 702.6L3253.8 718.8L3279.4 754.4L3298.9 734.9Z" fill="#3F7AD3"/>
<path id="Vector_41" d="M3349.1 619.301L3333.4 594.301L3298.9 615.301L3311.3 640.601L3349.1 619.301Z" fill="#3F7AD3"/>
<path id="Vector_42" d="M3378.1 457.9L3349.1 427.5L3324 464.4L3361.5 492L3378.1 457.9Z" fill="#3F7AD3"/>
<path id="Vector_43" d="M310.302 53.6992L299.602 83.4992L345.802 91.9992L351.402 53.6992H310.302Z" fill="#3F7AD3"/>
<path id="Vector_44" d="M181.398 118.1V155L223.298 150.8L226.098 123.1L181.398 118.1Z" fill="#3F7AD3"/>
<path id="Vector_45" d="M92.8008 221.199L98.8008 253.499L137.901 237.399L112.301 201.699L92.8008 221.199Z" fill="#3F7AD3"/>
<path id="Vector_46" d="M42.6016 336.9L58.4016 361.8L92.8016 340.8L80.4016 315.5L42.6016 336.9Z" fill="#3F7AD3"/>
<path id="Vector_47" d="M310.302 902.4L299.602 872.6L345.802 864.1L351.402 902.4H310.302Z" fill="#3F7AD3"/>
<path id="Vector_48" d="M181.398 838V801.1L223.298 805.4L226.098 833L181.398 838Z" fill="#3F7AD3"/>
<path id="Vector_49" d="M92.8008 734.9L98.8008 702.6L137.901 718.8L112.301 754.4L92.8008 734.9Z" fill="#3F7AD3"/>
<path id="Vector_50" d="M42.6016 619.301L58.4016 594.301L92.8016 615.301L80.4016 640.601L42.6016 619.301Z" fill="#3F7AD3"/>
<path id="Vector_51" d="M13.6016 457.9L42.6016 427.5L67.7016 464.4L30.2016 492L13.6016 457.9Z" fill="#3F7AD3"/>
<path id="Vector_52" d="M3041.5 299.1L3076.4 314.8L3092.2 357.1L3075 401.5L3022.2 407.5L2987.7 381.1V333L3019.6 299.1H3041.5Z" fill="#FFF1F0"/>
<path id="Vector_53" d="M3106.3 476.399L3121.4 438.599L3159.6 431.699L3184.4 443.399L3202.9 478.699L3179.9 522.099H3125.1L3106.3 476.399Z" fill="#FACABC"/>
<path id="Vector_54" d="M3046.8 546.1L2993.8 573.9V642.2L3041.5 663.8L3085.6 643.3L3103.7 589.5L3080.7 552.9L3046.8 546.1Z" fill="#3F7AD3"/>
<path id="Vector_55" d="M275.999 623.201L310.899 607.401L326.699 565.201L309.499 520.801L256.699 514.801L222.199 541.201V589.201L254.099 623.201H275.999Z" fill="#FACABC"/>
<path id="Vector_56" d="M935.798 846.999L973.598 853.299L1010.2 826.899L1020.5 780.399L979.898 746.199L936.598 748.999L909.898 788.999L917.598 834.899L935.798 846.999Z" fill="#5C404E"/>
<path id="Vector_57" d="M1263.4 802.501L1264.8 831.301L1290 853.901L1325.7 854.101L1344.5 818.901L1335.6 787.501L1302 774.301L1269.4 787.201L1263.4 802.501Z" fill="#3F7AD3"/>
<path id="Vector_58" d="M340.801 445.9L355.901 483.7L394.101 490.6L418.901 478.8L437.401 443.6L414.401 400.1H359.601L340.801 445.9Z" fill="#5C404E"/>
<path id="Vector_59" d="M1190.7 698.001L1169.4 732.701L1186.6 767.401L1210.8 780.301L1250.2 774.201L1271.3 729.801L1238.6 685.801L1190.7 698.001Z" fill="#5C404E"/>
<path id="Vector_60" d="M999.898 689.3L987.398 728.1L1012.4 757.7L1039 764.4L1075.7 749.2L1085.8 701L1043.5 666L999.898 689.3Z" fill="#FACABC"/>
<path id="Vector_61" d="M281.301 376.1L228.301 348.4V280L276.001 258.4L320.101 279L338.201 332.8L315.201 369.3L281.301 376.1Z" fill="#3F7AD3"/>
<path id="Vector_62" d="M1088.5 843L1068.4 786.7L1114.9 736.5L1164.5 752.9L1182.9 798L1159.7 849.8L1118 861L1088.5 843Z" fill="#FFF1F0"/>
<path id="Vector_63" d="M2075.4 691.001L2113.2 684.801L2149.8 711.201L2160 757.701L2119.5 791.901L2076.2 789.101L2049.5 749.101L2057.2 703.201L2075.4 691.001Z" fill="#FFF1F0"/>
<path id="Vector_64" d="M2403 735.6L2404.3 706.8L2429.5 684.1L2465.3 684L2484 719.2L2475.1 750.5L2441.5 763.8L2409 750.9L2403 735.6Z" fill="#5C404E"/>
<path id="Vector_65" d="M2330.3 840.101L2308.9 805.301L2326.2 770.601L2350.4 757.801L2389.7 763.901L2410.9 808.301L2378.2 852.301L2330.3 840.101Z" fill="#3F7AD3"/>
<path id="Vector_66" d="M2139.5 848.8L2127 810L2152 780.4L2178.5 773.6L2215.3 788.9L2225.3 837.1L2183.1 872L2139.5 848.8Z" fill="#5C404E"/>
<path id="Vector_67" d="M2228.1 695.1L2208 751.4L2254.4 801.6L2304.1 785.1L2322.5 740.1L2299.3 688.3L2257.6 677L2228.1 695.1Z" fill="#FACABC"/>
<path id="Vector_68" d="M923.498 803.399L950.198 763.399L993.498 760.599L1019.9 782.899L1020.5 780.399L979.898 746.199L936.598 748.999L909.898 788.999L917.598 834.899L930.198 843.299L923.498 803.399Z" fill="#2C1E25"/>
<path id="Vector_69" d="M1005.2 737.9L1017.7 699.1L1057.7 677.8L1043.5 666L999.898 689.3L987.398 728.1L1012.4 757.7L1024.4 760.7L1005.2 737.9Z" fill="#BE988D"/>
<path id="Vector_70" d="M1111.4 852.7L1091.4 796.4L1137.8 746.2L1165.5 755.4L1164.5 752.9L1114.9 736.5L1068.4 786.7L1088.5 843L1118 861L1122.9 859.7L1111.4 852.7Z" fill="#CBBEBD"/>
<path id="Vector_71" d="M1185.6 745.901L1207 711.101L1249.4 700.301L1238.6 685.801L1190.7 698.001L1169.4 732.701L1186.6 767.401L1199.8 774.401L1185.6 745.901Z" fill="#2C1E25"/>
<path id="Vector_72" d="M1284.4 837.301L1283.1 808.501L1289.1 793.201L1319.4 781.201L1302 774.301L1269.4 787.201L1263.4 802.501L1264.8 831.301L1290 853.901L1303 854.001L1284.4 837.301Z" fill="#2E5A9C"/>
<path id="Vector_73" d="M2071.7 768.501L2079.4 722.601L2097.6 710.501L2135.4 704.201L2150.7 715.201L2149.8 711.201L2113.2 684.801L2075.4 691.001L2057.2 703.201L2049.5 749.101L2076.2 789.101L2085.8 789.701L2071.7 768.501Z" fill="#CBBEBD"/>
<path id="Vector_74" d="M2423.1 744.8L2424.5 716L2449.7 693.3L2470.2 693.2L2465.3 684L2429.5 684.1L2404.3 706.8L2403 735.6L2409 750.9L2428.6 758.7L2423.1 744.8Z" fill="#2C1E25"/>
<path id="Vector_75" d="M2331.1 823.101L2348.3 788.401L2372.6 775.601L2397.1 779.401L2389.7 763.901L2350.4 757.801L2326.2 770.601L2308.9 805.301L2330.3 840.101L2343.6 843.501L2331.1 823.101Z" fill="#2E5A9C"/>
<path id="Vector_76" d="M2147 823.6L2172 794L2198.6 787.2L2216.5 794.7L2215.3 788.9L2178.5 773.6L2152 780.4L2127 810L2139.5 848.8L2158.4 858.9L2147 823.6Z" fill="#2C1E25"/>
<path id="Vector_77" d="M2232.6 760.2L2252.7 703.8L2282.2 685.8L2300.4 690.7L2299.3 688.3L2257.6 677L2228.1 695.1L2208 751.4L2254.4 801.6L2267.1 797.4L2232.6 760.2Z" fill="#BE988D"/>
<path id="Vector_78" d="M3020.5 401.6V353.5L3052.4 319.5H3074.2L3079 321.7L3076.4 314.8L3041.5 299.1H3019.6L2987.7 333V381.1L3022.2 407.5L3027.5 406.9L3020.5 401.6Z" fill="#CBBEBD"/>
<path id="Vector_79" d="M3117.3 491.499L3132.4 453.699L3170.5 446.799L3191.3 456.699L3184.4 443.399L3159.6 431.699L3121.4 438.599L3106.3 476.399L3125.1 522.099H3129.9L3117.3 491.499Z" fill="#BE988D"/>
<path id="Vector_80" d="M3025.8 654.7V586.4L3078.8 558.6L3085.1 559.9L3080.7 552.9L3046.8 546.1L2993.8 573.9V642.2L3041.5 663.8L3043.7 662.8L3025.8 654.7Z" fill="#2E5A9C"/>
<path id="Vector_81" d="M230.999 558.601L265.499 532.201L316.199 538.001L309.499 520.801L256.699 514.801L222.199 541.201V589.201L230.999 598.601V558.601Z" fill="#BE988D"/>
<path id="Vector_82" d="M354.601 458.1L373.401 412.4H420.901L414.401 400.1H359.601L340.801 445.9L355.901 483.7L365.501 485.4L354.601 458.1Z" fill="#2C1E25"/>
<path id="Vector_83" d="M244.701 301.4L292.401 279.8L325.601 295.3L320.101 279L276.001 258.4L228.301 280V348.4L244.701 357V301.4Z" fill="#2E5A9C"/>
</g>
<defs>
<clipPath id="clip0">
<rect width="3397" height="952.8" fill="white"/>
</clipPath>
</defs>
</svg>

<svg width="3397" height="953" fill="none" xmlns="http://www.w3.org/2000/svg"><g clip-path="url(#clip0)"><path d="M2923.3 0l139 20.6 129.5 62.3 118.6 115.8 71.3 147.5 15.3 180.9-41.7 150.3-101.1 141.7-126.8 87.9-135.6 45.8H476.4l-140.5-21-157.1-83.3L59 706.2l-59-181 12.8-159L100 184.3 229.7 68.8l128.3-54L476.4 0h2446.9z" fill="#2E5A9C"/><path d="M476.399 78.3H2923.3l156.1 31.701 128.5 88 77.7 113.2 35.8 135.4-15.2 139.2-39.9 92.9-96.8 110.6-125.2 66.5-121 18.8H476.399l-141.2-25.8-130.1-81-92.8-130-32.6-126.8 7.2-117.6 49.9-124.9 87-99.9 112.3-64.9 140.3-25.4z" fill="#F87980"/><path d="M263.199 794.301l-92.8-130-32.5-126.8 7.1-117.6 49.9-124.9 87.1-99.9 112.2-65 140.3-25.4H2981.4l128.4 26.2-30.4-20.9-156.1-31.7H476.399l-140.3 25.4-112.3 64.9-87 99.9-49.9 124.9-7.2 117.6 32.6 126.8 92.8 130 130.1 81 22.1 4-94.1-58.5z" fill="#A75155"/><path d="M2744.1 9.7l-26.4 26.4 39 29.2 26.3-33.8-38.9-21.8zM2896 37.5l27.1-23.5 31.4 27.1-26.5 24.2-32-27.8zM2579 9.7l-41 29.9 48.1 26.7 27-22.3L2579 9.7zM2219.5 9.7l-26.3 26.4 38.9 29.2 26.4-33.8-39-21.8zM2371.4 37.5l27.1-23.5 31.5 27.1-26.5 24.2-32.1-27.8zM2054.5 9.7l-41.1 29.9 48.1 26.7 27-22.3-34-34.3zM1695 9.7l-26.4 26.4 39 29.2 26.3-33.8L1695 9.7zM1846.8 37.5L1874 14l31.4 27.1-26.5 24.2-32.1-27.8zM1529.9 9.7l-41 29.9 48.1 26.7 27-22.3-34.1-34.3zM1170.4 9.7l-26.3 26.4 38.9 29.2 26.4-33.8-39-21.8zM1322.3 37.5l27.1-23.5 31.4 27.1-26.5 24.2-32-27.8zM1005.4 9.7l-41.099 29.9 48.099 26.7 27-22.3-34-34.3zM645.9 9.7l-26.4 26.4 39 29.2 26.3-33.8-38.9-21.8zM797.699 37.5l27.1-23.5 31.5 27.1-26.5 24.2-32.1-27.8zM480.801 9.7l-41 29.9 48.1 26.7 26.9-22.3-34-34.3zM650.199 887.6l26.3 26.3-38.9 29.2-26.4-33.8 39-21.7zM498.301 915.301l-27.1-23.5-31.4 27.1 26.5 24.2 32-27.8zM815.199 887.6l41.1 29.9-48.1 26.6-27-22.3 34-34.2zM1174.7 887.6l26.4 26.3-39 29.2-26.3-33.8 38.9-21.7zM1022.9 915.301l-27.199-23.5-31.4 27.1 26.5 24.2 32.099-27.8zM1339.8 887.6l41 29.9-48.1 26.6-27-22.3 34.1-34.2zM1699.3 887.6l26.3 26.3-38.9 29.2-26.4-33.8 39-21.7zM1547.4 915.301l-27.1-23.5-31.4 27.1 26.5 24.2 32-27.8zM1864.3 887.6l41.1 29.9-48.1 26.6-27-22.3 34-34.2zM2223.9 887.6l26.3 26.3-38.9 29.2-26.4-33.8 39-21.7zM2072 915.301l-27.1-23.5-31.5 27.1 26.5 24.2 32.1-27.8zM2388.9 887.6l41.1 29.9-48.2 26.6-26.9-22.3 34-34.2zM2748.4 887.6l26.4 26.3-39 29.2-26.3-33.8 38.9-21.7zM2596.5 915.301l-27.1-23.5-31.4 27.1 26.5 24.2 32-27.8zM2913.4 887.6l41.1 29.9-48.1 26.6-27-22.3 34-34.2zM3081.4 53.7l10.7 29.8L3046 92l-5.7-38.3h41.1zM3210.3 118.1V155l-41.9-4.2-2.8-27.7 44.7-5zM3298.9 221.199l-6 32.3-39.1-16.1 25.6-35.7 19.5 19.5zM3349.1 336.9l-15.7 24.9-34.5-21 12.4-25.3 37.8 21.4zM3081.4 902.4l10.7-29.8-46.1-8.5-5.7 38.3h41.1zM3210.3 838v-36.9l-41.9 4.3-2.8 27.6 44.7 5zM3298.9 734.9l-6-32.3-39.1 16.2 25.6 35.6 19.5-19.5zM3349.1 619.301l-15.7-25-34.5 21 12.4 25.3 37.8-21.3zM3378.1 457.9l-29-30.4-25.1 36.9 37.5 27.6 16.6-34.1zM310.302 53.7l-10.7 29.8 46.2 8.5 5.6-38.3h-41.1zM181.398 118.1V155l41.9-4.2 2.8-27.7-44.7-5zM92.8 221.199l6 32.3 39.101-16.1-25.6-35.7-19.5 19.5zM42.602 336.9l15.8 24.9 34.4-21-12.4-25.3-37.8 21.4zM310.302 902.4l-10.7-29.8 46.2-8.5 5.6 38.3h-41.1zM181.398 838v-36.9l41.9 4.3 2.8 27.6-44.7 5zM92.8 734.9l6-32.3 39.101 16.2-25.6 35.6-19.5-19.5zM42.602 619.301l15.8-25 34.4 21-12.4 25.3-37.8-21.3zM13.602 457.9l29-30.4 25.1 36.9-37.5 27.6-16.6-34.1z" fill="#3F7AD3"/><path d="M3041.5 299.1l34.9 15.7 15.8 42.3-17.2 44.4-52.8 6-34.5-26.4V333l31.9-33.9h21.9z" fill="#FFF1F0"/><path d="M3106.3 476.399l15.1-37.8 38.2-6.9 24.8 11.7 18.5 35.3-23 43.4h-54.8l-18.8-45.7z" fill="#FACABC"/><path d="M3046.8 546.1l-53 27.8v68.3l47.7 21.6 44.1-20.5 18.1-53.8-23-36.6-33.9-6.8z" fill="#3F7AD3"/><path d="M275.999 623.201l34.9-15.8 15.8-42.2-17.2-44.4-52.8-6-34.5 26.4v48l31.9 34h21.9z" fill="#FACABC"/><path d="M935.798 846.999l37.8 6.3 36.602-26.4 10.3-46.5-40.602-34.2-43.3 2.8-26.7 40 7.7 45.9 18.2 12.1z" fill="#5C404E"/><path d="M1263.4 802.501l1.4 28.8 25.2 22.6 35.7.2 18.8-35.2-8.9-31.4-33.6-13.2-32.6 12.9-6 15.3z" fill="#3F7AD3"/><path d="M340.801 445.9l15.1 37.8 38.2 6.9 24.8-11.8 18.5-35.2-23-43.5h-54.8l-18.8 45.8zM1190.7 698.001l-21.3 34.7 17.2 34.7 24.2 12.9 39.4-6.1 21.1-44.4-32.7-44-47.9 12.2z" fill="#5C404E"/><path d="M999.898 689.3l-12.5 38.8 25.002 29.6 26.6 6.7 36.7-15.2 10.1-48.2-42.3-35-43.602 23.3z" fill="#FACABC"/><path d="M281.301 376.1l-53-27.7V280l47.7-21.6 44.1 20.6 18.1 53.8-23 36.5-33.9 6.8z" fill="#3F7AD3"/><path d="M1088.5 843l-20.1-56.3 46.5-50.2 49.6 16.4 18.4 45.1-23.2 51.8L1118 861l-29.5-18zM2075.4 691.001l37.8-6.2 36.6 26.4 10.2 46.5-40.5 34.2-43.3-2.8-26.7-40 7.7-45.9 18.2-12.2z" fill="#FFF1F0"/><path d="M2403 735.6l1.3-28.8 25.2-22.7 35.8-.1 18.7 35.2-8.9 31.3-33.6 13.3-32.5-12.9-6-15.3z" fill="#5C404E"/><path d="M2330.3 840.101l-21.4-34.8 17.3-34.7 24.2-12.8 39.3 6.1 21.2 44.4-32.7 44-47.9-12.2z" fill="#3F7AD3"/><path d="M2139.5 848.8L2127 810l25-29.6 26.5-6.8 36.8 15.3 10 48.2-42.2 34.9-43.6-23.2z" fill="#5C404E"/><path d="M2228.1 695.1l-20.1 56.3 46.4 50.2 49.7-16.5 18.4-45-23.2-51.8-41.7-11.3-29.5 18.1z" fill="#FACABC"/><path d="M923.498 803.399l26.7-40 43.3-2.8 26.402 22.3.6-2.5-40.602-34.2-43.3 2.8-26.7 40 7.7 45.9 12.6 8.4-6.7-39.9z" fill="#2C1E25"/><path d="M1005.2 737.9l12.5-38.8 40-21.3-14.2-11.8-43.602 23.3-12.5 38.8 25.002 29.6 12 3-19.2-22.8z" fill="#BE988D"/><path d="M1111.4 852.7l-20-56.3 46.4-50.2 27.7 9.2-1-2.5-49.6-16.4-46.5 50.2 20.1 56.3 29.5 18 4.9-1.3-11.5-7z" fill="#CBBEBD"/><path d="M1185.6 745.901l21.4-34.8 42.4-10.8-10.8-14.5-47.9 12.2-21.3 34.7 17.2 34.7 13.2 7-14.2-28.5z" fill="#2C1E25"/><path d="M1284.4 837.301l-1.3-28.8 6-15.3 30.3-12-17.4-6.9-32.6 12.9-6 15.3 1.4 28.8 25.2 22.6 13 .1-18.6-16.7z" fill="#2E5A9C"/><path d="M2071.7 768.501l7.7-45.9 18.2-12.1 37.8-6.3 15.3 11-.9-4-36.6-26.4-37.8 6.2-18.2 12.2-7.7 45.9 26.7 40 9.6.6-14.1-21.2z" fill="#CBBEBD"/><path d="M2423.1 744.8l1.4-28.8 25.2-22.7 20.5-.1-4.9-9.2-35.8.1-25.2 22.7-1.3 28.8 6 15.3 19.6 7.8-5.5-13.9z" fill="#2C1E25"/><path d="M2331.1 823.101l17.2-34.7 24.3-12.8 24.5 3.8-7.4-15.5-39.3-6.1-24.2 12.8-17.3 34.7 21.4 34.8 13.3 3.4-12.5-20.4z" fill="#2E5A9C"/><path d="M2147 823.6l25-29.6 26.6-6.8 17.9 7.5-1.2-5.8-36.8-15.3-26.5 6.8-25 29.6 12.5 38.8 18.9 10.1-11.4-35.3z" fill="#2C1E25"/><path d="M2232.6 760.2l20.1-56.4 29.5-18 18.2 4.9-1.1-2.4-41.7-11.3-29.5 18.1-20.1 56.3 46.4 50.2 12.7-4.2-34.5-37.2z" fill="#BE988D"/><path d="M3020.5 401.6v-48.1l31.9-34h21.8l4.8 2.2-2.6-6.9-34.9-15.7h-21.9l-31.9 33.9v48.1l34.5 26.4 5.3-.6-7-5.3z" fill="#CBBEBD"/><path d="M3117.3 491.499l15.1-37.8 38.1-6.9 20.8 9.9-6.9-13.3-24.8-11.7-38.2 6.9-15.1 37.8 18.8 45.7h4.8l-12.6-30.6z" fill="#BE988D"/><path d="M3025.8 654.7v-68.3l53-27.8 6.3 1.3-4.4-7-33.9-6.8-53 27.8v68.3l47.7 21.6 2.2-1-17.9-8.1z" fill="#2E5A9C"/><path d="M230.999 558.601l34.5-26.4 50.7 5.8-6.7-17.2-52.8-6-34.5 26.4v48l8.8 9.4v-40z" fill="#BE988D"/><path d="M354.601 458.1l18.8-45.7h47.5l-6.5-12.3h-54.8l-18.8 45.8 15.1 37.8 9.6 1.7-10.9-27.3z" fill="#2C1E25"/><path d="M244.701 301.4l47.7-21.6 33.2 15.5-5.5-16.3-44.1-20.6-47.7 21.6v68.4l16.4 8.6v-55.6z" fill="#2E5A9C"/></g><defs><clipPath id="clip0"><path fill="#fff" d="M0 0h3397v952.8H0z"/></clipPath></defs></svg>
